X:1
T:Title
%%score { ( 1 3 ) | ( 2 4 ) }
L:1/8
M:6/8
K:C
V:1 treble nm="Grand Piano"
V:3 treble 
V:2 bass 
V:4 bass 
V:1
 z3 z[Q:1/4=100] [G,CE][G,DF] | [CEG]>[CEG][CEG] [B,DG][CEG][DFG] | G3 z [Ec][Fd] | %3
 [Ge]>[Gd][Gc] [Ac][GB][FA] | [EG]3- [EG][DF][CE] | [B,D]>[CE][DF] [DF][CE][B,D] | E3 G[EG][EA] | %7
 B>BB [^FA][FB][Fc] | d3 GE[DF] | [EG]>[EG][EG] [B,DG][CEG][DFG] | G3 z [Ec][Fd] | %11
 [Ge]>[Gd][Gc] [Ac][GB][FA] | [EG]3- [EG][EG][EG] | A>AA [Ac][GB][FA] | [EG]3 ccc | %15
 e>dc [DB][FA][FB] |[M:2/4] [Ec]4 |[M:1/4] [Ec][Ec] |[M:3/4] c>c cc BA | [EG]4 [EG][EG] | %20
 A>A A[^FA] [FB][Fc] | d3 G GG | [_Be]>[Be] [Be][Be] [Bd][EBc] | [FAc]3 [FA] AA | %24
 G>G G[B,D] [CE][DF] | [CE]3 [EG] AA | G>G G[B,DG] [CEG][DFG] |[M:2/4] [CEG]4 |] %28
V:2
 z3 z C,C, | C,>C,C, G,G,G, | z3[K:treble] c[K:bass][C,C][C,C] | %3
 [C,C]>[D,B,][E,C] [F,C][F,C][F,C] | [C,C]3- [C,C][C,G,][C,G,] | %5
 [G,,G,]>[G,,G,][G,,G,] [G,,G,][G,,G,][G,,G,] | [G,C]3 [CE][C,G,][C,G,] | %7
 [D,G,D]>[D,G,D][D,G,D] [D,C][D,B,][D,A,] | [G,B,F]3- [G,B,F][K:bass][C,G,C][C,G,] | %9
 [C,C]>[C,C][C,C] G,G,G, | z3[K:treble] c[K:bass][C,C][C,C] | [C,C]>[D,B,][E,C] [F,C][F,C][F,C] | %12
 [C,C]3- [C,C][C,C][C,C] | [F,CF]>[F,CF][F,CF] [F,C][F,C][F,C] | z3[K:treble] E[A,C^F][A,CF] | %15
 [G,CG]>[G,F][K:bass][G,E] [G,,G,][G,,G,][G,,G,] |[M:2/4] [C,G,]4 |[M:1/4] [C,G,][C,G,] | %18
[M:3/4] [F,A,F]>[F,A,F] [F,A,F][F,A,F] [F,B,F][F,CF] | [C,C]4 [C,C][C,C] | %20
 [F,CF]>[F,CF] [F,CF][D,C] [D,B,][D,A,] | [G,B,F]4 G,[K:bass]G, | [C,C]>[C,C] [C,C][C,C] [C,C]C, | %23
 F,3 [F,C] [F,CF][F,CF] | [G,CE]>[G,CE] [G,CE][G,,G,] [G,,G,][G,,G,] | [C,G,]3 [C,C] [F,CF][F,CF] | %26
 [G,CE]>[G,CE] [G,CE]G,, G,,G,, |[M:2/4] C,4 |] %28
V:3
 x6 | x6 | .[CE]6 | x6 | x6 | x6 | x6 | x6 | x6 | x6 | .[CE]6 | x6 | x6 | x6 | x6 | x6 | %16
[M:2/4] x4 |[M:1/4] x2 |[M:3/4] x6 | x6 | x6 | x6 | x6 | x6 | x6 | x6 | x6 |[M:2/4] x4 |] %28
V:4
 x6 | x6 | .C,6[K:treble][K:bass] | x6 | x6 | x6 | .C,6 | x6 | x4[K:bass] x2 | x6 | %10
 .C,6[K:treble][K:bass] | x6 | x6 | x6 | .[C,C]6[K:treble] | x2[K:bass] x4 |[M:2/4] x4 | %17
[M:1/4] x2 |[M:3/4] x6 | x6 | x6 | x5[K:bass] x | x6 | x6 | x6 | x6 | x6 |[M:2/4] x4 |] %28

